X: 1
T: 'N\aar vandet fryser i hanerne' trekant
O: Denmark
S: Thomas Thomsen efter Jens Chr. Thomsen, Vind/Thorkild Knudsen
R: jig
B: "Folkemusikhus Spillebog"
Z: 2006 John Chambers <jc:trillian.mit.edu>
M: 6/8
L: 1/8
K: G
   D \
| "G"G2G GAB | "C"cBc E2G | "D7"F2A DEF | "G"G2B d2D \
| "G"G2G GAB | "C"cBc E2G | "D7"F2A DEF | "G"G2G G2 :|
|: B \
| "G"d2d B2d | "C"e2e c2B | "D7"A2A ABc | "G"d2d B2B \
| "G"G2G GAB | "C"cBc E2G | "D7"F2A DEF | "G"G2G G2 :|
